_/img/starkex-logo-light.svg

<svg width="150" height="30" viewBox="0 0 150 30" fill="none" xmlns="http://www.w3.org/2000/svg">
<g clip-path="url(#clip0_380_5931)">
<path d="M47.8586 18.4408C47.8586 21.2507 46.2714 22.8638 43.149 22.8638H35.6825V19.5351H42.2648C43.2272 19.5351 43.6955 19.1967 43.6955 18.3383C43.6955 17.6359 43.1754 17.1934 42.0305 16.3868L38.128 13.369C36.1506 11.8602 35.3181 10.455 35.3181 8.78926C35.3181 5.95223 36.9834 4.65291 40.2626 4.65291H47.5477V7.98315H40.9881C39.9749 7.98315 39.4792 8.32118 39.4792 9.20589C39.4792 9.88235 39.9996 10.3245 41.1706 11.1051L45.0471 13.8108C47.0267 15.1624 47.8586 16.8014 47.8586 18.4408Z" fill="#28286E"/>
<path d="M63.4939 7.98185H58.8106V22.8633H54.6463V7.98185H49.9651V4.65161H63.4939V7.98185Z" fill="#28286E"/>
<path fill-rule="evenodd" clip-rule="evenodd" d="M68.1779 19.351H75.5137L76.762 22.8633H81.2891L74.0304 4.65161H69.6593L62.4005 22.8633H66.9272L68.1779 19.351ZM71.8716 9.10053L74.4191 16.3074H69.2956L71.8716 9.10053Z" fill="#28286E"/>
<path fill-rule="evenodd" clip-rule="evenodd" d="M92.6827 22.8633H96.8713L96.0649 19.3782C95.4925 16.8273 94.7899 15.4744 93.3593 14.7984C95.3628 14.1739 96.3516 12.6386 96.3516 10.1149C96.3516 6.36883 94.5824 4.65161 90.7055 4.65161H83.2383V22.8633H87.4014V16.2818H89.0664C90.8875 16.3081 91.3562 16.9586 91.8763 19.3778L92.6827 22.8633ZM92.1885 10.5052C92.1885 12.4307 91.5127 13.2372 89.2225 13.2372H87.4018V7.77352H89.2225C91.5127 7.77352 92.1885 8.57967 92.1885 10.5052Z" fill="#28286E"/>
<path fill-rule="evenodd" clip-rule="evenodd" d="M110.402 4.65161L103.768 13.4715L110.868 22.8633H115.841L108.4 13.4715L115.371 4.65161H110.402ZM99.6017 22.8634H103.767V4.65173H99.6017V22.8634Z" fill="#28286E"/>
<path d="M123.978 21.5894H128.913C129.267 21.5982 129.621 21.5411 129.955 21.4208C130.224 21.3203 130.469 21.165 130.674 20.9649C130.865 20.7729 131.017 20.5461 131.123 20.2965C131.232 20.0386 131.308 19.7679 131.348 19.4908L131.523 18.3917H132.86L132.685 22.8632H118.97V21.7892H119.294C119.564 21.7903 119.833 21.7715 120.1 21.7329C120.336 21.7018 120.563 21.6232 120.768 21.5019C120.967 21.377 121.125 21.1969 121.224 20.9835C121.347 20.6981 121.405 20.3885 121.392 20.0777V7.51172C121.405 7.18326 121.35 6.85573 121.23 6.54953C121.136 6.32554 120.98 6.13285 120.78 5.99388C120.579 5.86111 120.351 5.77387 120.112 5.73815C119.841 5.69465 119.568 5.67321 119.294 5.67414H118.97V4.6001H131.86L131.985 9.07208H130.661L130.536 7.9725C130.505 7.69707 130.439 7.42654 130.342 7.1668C130.25 6.9191 130.111 6.69199 129.931 6.49849C129.741 6.30012 129.511 6.14469 129.256 6.04253C128.943 5.92265 128.61 5.86537 128.275 5.87392H123.979V12.6828H130.15V13.9319H123.978V21.5894Z" fill="#F6643C"/>
<path d="M144.059 10.9716C144.085 10.7027 143.922 10.4517 143.666 10.3661C143.35 10.2619 143.018 10.2133 142.685 10.2222H142.61V9.14818H148.206V10.2222H147.982C147.753 10.2202 147.525 10.241 147.301 10.2846C147.089 10.3295 146.886 10.4098 146.701 10.5221C146.478 10.6612 146.274 10.8292 146.096 11.0218C145.846 11.287 145.613 11.5664 145.396 11.8588L142.762 15.3686L146.521 20.4266C146.808 20.841 147.17 21.1984 147.588 21.4803C147.881 21.6708 148.22 21.7767 148.569 21.7863H148.906V22.8604H142.3V21.7863H142.425C143.449 21.7863 143.962 21.5026 143.962 20.9352C143.961 20.8404 143.949 20.746 143.924 20.6544C143.889 20.5358 143.839 20.4223 143.774 20.3167C143.699 20.1879 143.599 20.0318 143.475 19.8487C143.35 19.6654 143.188 19.4405 142.988 19.1739L141.277 16.8754L139.491 19.3736C139.416 19.4736 139.337 19.5903 139.254 19.7238C139.171 19.8565 139.096 19.9942 139.029 20.136C138.963 20.2749 138.909 20.419 138.867 20.5668C138.827 20.7026 138.806 20.8434 138.804 20.9851C138.786 21.2462 138.93 21.4918 139.167 21.6035C139.557 21.7495 139.974 21.8113 140.391 21.7847H140.466V22.8587H134.367V21.7847H134.604C134.876 21.7879 135.148 21.7628 135.414 21.7097C135.648 21.6593 135.872 21.5707 136.076 21.4475C136.305 21.3057 136.515 21.1356 136.701 20.9413C136.944 20.6893 137.173 20.4246 137.388 20.1482L140.611 15.9765L137.388 11.5791C137.073 11.1918 136.704 10.8508 136.294 10.5659C135.968 10.3419 135.583 10.2201 135.188 10.2161H134.853V9.1421H141.349V10.2161H141.274C141.031 10.212 140.789 10.2309 140.55 10.2724C140.391 10.2975 140.238 10.3525 140.1 10.4346C140.003 10.4924 139.925 10.5768 139.875 10.6778C139.834 10.7678 139.812 10.8659 139.812 10.9651C139.815 11.1491 139.869 11.3287 139.968 11.4835C140.073 11.6545 140.221 11.8731 140.414 12.1392L142.1 14.4376L143.425 12.5267C143.6 12.2642 143.754 11.9884 143.887 11.7019C143.995 11.4734 144.054 11.2245 144.059 10.9716Z" fill="#F6643C"/>
<g clip-path="url(#clip1_380_5931)">
<path d="M1.74232 14.3016L10.7195 9.10211C10.9934 8.94019 11.3055 8.85416 11.6237 8.85287C11.7093 8.85258 11.7947 8.85883 11.8794 8.87148C12.0953 8.90095 12.3043 8.96849 12.4967 9.0709L13.837 9.83812L21.7296 14.3826C21.9611 14.5405 22.1532 14.7497 22.2909 14.9938C22.3368 15.0759 22.3764 15.1614 22.4092 15.2495L22.3857 1.29704C22.385 1.05967 22.2899 0.832331 22.1214 0.665093C21.953 0.497856 21.725 0.404433 21.4876 0.405403L1.79703 0.436206C1.30431 0.441954 0.907354 0.84198 0.905396 1.33473L0.92809 15.1677C0.958897 15.0995 0.993397 15.0331 1.03144 14.9687C1.20378 14.6862 1.44944 14.4556 1.74232 14.3016Z" fill="#28286E"/>
<path d="M0.934095 18.3914C0.963231 18.3276 0.995558 18.2655 1.03096 18.205C1.2033 17.9224 1.44896 17.6919 1.74184 17.5378L10.719 12.3384C10.9929 12.1765 11.305 12.0905 11.6232 12.0891C11.7088 12.0889 11.7943 12.0951 11.879 12.1078C12.0949 12.1373 12.3038 12.2048 12.4962 12.3072L13.8365 13.0744L21.7291 17.6189C21.9607 17.7768 22.1527 17.9859 22.2904 18.2301C22.3397 18.3182 22.3815 18.4102 22.4152 18.5053L22.41 16.219V15.2496C22.3771 15.1615 22.3375 15.076 22.2916 14.9938C22.154 14.7497 21.9619 14.5405 21.7303 14.3827L13.8365 9.83817L12.4962 9.07094C12.3038 8.96854 12.0949 8.90104 11.879 8.87156C11.7943 8.85887 11.7088 8.85263 11.6232 8.85291C11.305 8.85421 10.9929 8.94028 10.719 9.10216L1.74184 14.3016C1.44896 14.4557 1.2033 14.6862 1.03096 14.9687C0.992919 15.0331 0.958415 15.0996 0.927612 15.1677V16.2069L0.934095 18.3914Z" fill="#28286E"/>
<path opacity="0.4" d="M0.934095 18.3914C0.963231 18.3276 0.995558 18.2655 1.03096 18.205C1.2033 17.9224 1.44896 17.6919 1.74184 17.5378L10.719 12.3384C10.9929 12.1765 11.305 12.0905 11.6232 12.0891C11.7088 12.0889 11.7943 12.0951 11.879 12.1078C12.0949 12.1373 12.3038 12.2048 12.4962 12.3072L13.8365 13.0744L21.7291 17.6189C21.9607 17.7768 22.1527 17.9859 22.2904 18.2301C22.3397 18.3182 22.3815 18.4102 22.4152 18.5053L22.41 16.219V15.2496C22.3771 15.1615 22.3375 15.076 22.2916 14.9938C22.154 14.7497 21.9619 14.5405 21.7303 14.3827L13.8365 9.83817L12.4962 9.07094C12.3038 8.96854 12.0949 8.90104 11.879 8.87156C11.7943 8.85887 11.7088 8.85263 11.6232 8.85291C11.305 8.85421 10.9929 8.94028 10.719 9.10216L1.74184 14.3016C1.44896 14.4557 1.2033 14.6862 1.03096 14.9687C0.992919 15.0331 0.958415 15.0996 0.927612 15.1677V16.2069L0.934095 18.3914Z" fill="#F6643C"/>
<path d="M1.87172 20.8272L10.7321 15.6954C11.0023 15.5357 11.31 15.4508 11.6238 15.4494C11.7082 15.4491 11.7925 15.4554 11.8759 15.4681C12.0885 15.4971 12.2944 15.5637 12.4838 15.6646L13.8067 16.4217L21.5988 20.9074C21.8273 21.063 22.0168 21.2692 22.1524 21.5101C22.2744 21.7242 22.35 21.9616 22.3745 22.2068C22.4057 22.0775 22.422 21.9451 22.4231 21.812L22.4158 18.5053C22.382 18.4102 22.3403 18.3181 22.291 18.2301C22.1533 17.9859 21.9613 17.7768 21.7297 17.6189L13.8371 13.0744L12.4968 12.3072C12.3044 12.2048 12.0954 12.1372 11.8795 12.1078C11.7949 12.0951 11.7094 12.0889 11.6238 12.0891C11.3056 12.0905 10.9935 12.1765 10.7196 12.3384L1.74243 17.5378C1.44956 17.6919 1.20389 17.9225 1.03156 18.2049C0.996156 18.2654 0.963825 18.3277 0.934692 18.3914L0.942391 21.8493C0.942391 21.9093 0.948472 21.9681 0.954144 22.0264C0.997186 21.836 1.07009 21.6535 1.17016 21.4858C1.34023 21.2069 1.58267 20.9793 1.87172 20.8272Z" fill="#28286E"/>
<path opacity="0.7" d="M1.87172 20.8272L10.7321 15.6954C11.0023 15.5357 11.31 15.4508 11.6238 15.4494C11.7082 15.4491 11.7925 15.4554 11.8759 15.4681C12.0885 15.4971 12.2944 15.5637 12.4838 15.6646L13.8067 16.4217L21.5988 20.9074C21.8273 21.063 22.0168 21.2692 22.1524 21.5101C22.2744 21.7242 22.35 21.9616 22.3745 22.2068C22.4057 22.0775 22.422 21.9451 22.4231 21.812L22.4158 18.5053C22.382 18.4102 22.3403 18.3181 22.291 18.2301C22.1533 17.9859 21.9613 17.7768 21.7297 17.6189L13.8371 13.0744L12.4968 12.3072C12.3044 12.2048 12.0954 12.1372 11.8795 12.1078C11.7949 12.0951 11.7094 12.0889 11.6238 12.0891C11.3056 12.0905 10.9935 12.1765 10.7196 12.3384L1.74243 17.5378C1.44956 17.6919 1.20389 17.9225 1.03156 18.2049C0.996156 18.2654 0.963825 18.3277 0.934692 18.3914L0.942391 21.8493C0.942391 21.9093 0.948472 21.9681 0.954144 22.0264C0.997186 21.836 1.07009 21.6535 1.17016 21.4858C1.34023 21.2069 1.58267 20.9793 1.87172 20.8272Z" fill="#F6643C"/>
<path d="M1.72946 23.3258L9.51953 27.8115L10.8424 28.5686C11.0319 28.6694 11.2377 28.736 11.4503 28.7651C11.5337 28.7778 11.618 28.784 11.7024 28.7838C12.0162 28.7824 12.324 28.6975 12.594 28.5378L21.4565 23.406C21.7457 23.254 21.9881 23.0264 22.1581 22.7474C22.2581 22.5797 22.331 22.3972 22.3741 22.2067C22.3496 21.9615 22.2739 21.7242 22.152 21.51C22.0164 21.2692 21.8269 21.0629 21.5984 20.9074L13.8083 16.4216L12.4854 15.6646C12.296 15.5636 12.0902 15.4971 11.8775 15.468C11.7941 15.4553 11.7098 15.4491 11.6254 15.4493C11.3116 15.4508 11.0039 15.5357 10.7338 15.6953L1.87131 20.8271C1.58226 20.9793 1.33982 21.2069 1.16976 21.4858C1.06969 21.6534 0.996777 21.8359 0.953735 22.0264C0.97823 22.2716 1.05389 22.509 1.17583 22.7231C1.31147 22.9639 1.50094 23.1702 1.72946 23.3258Z" fill="#F6643C"/>
</g>
</g>
<defs>
<clipPath id="clip0_380_5931">
<rect width="148.784" height="30" fill="white" transform="translate(0.5)"/>
</clipPath>
<clipPath id="clip1_380_5931">
<rect width="21.4865" height="28.3784" fill="white" transform="translate(0.905396 0.405396)"/>
</clipPath>
</defs>
</svg>

<svg width="150" height="30" viewBox="0 0 150 30" fill="none" xmlns="http://www.w3.org/2000/svg"><g clip-path="url(#clip0_380_5931)"><path d="M47.859 18.44c0 2.81-1.588 4.424-4.71 4.424h-7.467v-3.329h6.583c.962 0 1.43-.338 1.43-1.197 0-.702-.52-1.145-1.664-1.951l-3.903-3.018c-1.977-1.509-2.81-2.914-2.81-4.58 0-2.837 1.665-4.136 4.945-4.136h7.285v3.33h-6.56c-1.013 0-1.509.338-1.509 1.223 0 .676.52 1.119 1.692 1.9l3.876 2.705c1.98 1.351 2.812 2.99 2.812 4.63zM63.494 7.982H58.81v14.881h-4.165V7.982h-4.68v-3.33h13.528v3.33z" fill="#28286E"/><path fill-rule="evenodd" clip-rule="evenodd" d="M68.178 19.351h7.336l1.248 3.512h4.527L74.03 4.652h-4.37L62.4 22.863h4.527l1.25-3.512zm3.694-10.25l2.547 7.206h-5.123l2.576-7.206zm20.811 13.762h4.188l-.806-3.485c-.572-2.55-1.275-3.904-2.706-4.58 2.004-.624 2.993-2.16 2.993-4.683 0-3.746-1.77-5.463-5.647-5.463h-7.467v18.211h4.163v-6.581h1.665c1.822.026 2.29.677 2.81 3.096l.807 3.485zm-.495-12.358c0 1.926-.675 2.732-2.966 2.732h-1.82V7.774h1.82c2.29 0 2.967.806 2.967 2.731zm18.214-5.853l-6.634 8.82 7.1 9.391h4.973l-7.441-9.391 6.971-8.82h-4.969zm-10.8 18.211h4.165V4.652h-4.165v18.211z" fill="#28286E"/><path d="M123.978 21.59h4.935a2.87 2.87 0 001.042-.17c.269-.1.514-.255.719-.455a2.13 2.13 0 00.449-.668 3.27 3.27 0 00.225-.806l.175-1.1h1.337l-.175 4.472H118.97V21.79h.324c.27.001.539-.018.806-.056.236-.031.463-.11.668-.231.199-.125.357-.305.456-.518a2.07 2.07 0 00.168-.906V7.512a2.379 2.379 0 00-.162-.962 1.28 1.28 0 00-.45-.556 1.656 1.656 0 00-.668-.256 5.048 5.048 0 00-.818-.064h-.324V4.6h12.89l.125 4.472h-1.324l-.125-1.1a3.387 3.387 0 00-.194-.805 2.005 2.005 0 00-.411-.669 1.927 1.927 0 00-.675-.455 2.56 2.56 0 00-.981-.17h-4.296v6.81h6.171v1.249h-6.172v7.657zm20.081-10.618a.58.58 0 00-.393-.606 2.887 2.887 0 00-.981-.144h-.075V9.148h5.596v1.074h-.224a3.407 3.407 0 00-.681.063 1.925 1.925 0 00-.6.237 2.95 2.95 0 00-.605.5c-.25.265-.483.544-.7.837l-2.634 3.51 3.759 5.058c.287.414.649.771 1.067 1.053.293.19.632.297.981.306h.337v1.074H142.3v-1.074h.125c1.024 0 1.537-.283 1.537-.85a1.11 1.11 0 00-.038-.282 1.398 1.398 0 00-.15-.337 8.448 8.448 0 00-.299-.468 18.937 18.937 0 00-.487-.675l-1.711-2.299-1.786 2.499a4.892 4.892 0 00-.462.762c-.066.139-.12.283-.162.43a1.57 1.57 0 00-.063.42.635.635 0 00.363.617c.39.146.807.208 1.224.182h.075v1.074h-6.099v-1.074h.237c.272.003.544-.022.81-.075.234-.05.458-.14.662-.262a3.19 3.19 0 00.625-.507c.243-.252.472-.516.687-.793l3.223-4.171-3.223-4.398a5.332 5.332 0 00-1.094-1.013 1.989 1.989 0 00-1.106-.35h-.335V9.142h6.496v1.074h-.075a3.849 3.849 0 00-.724.056 1.25 1.25 0 00-.45.163.585.585 0 00-.225.243.694.694 0 00-.063.287.992.992 0 00.156.518c.105.171.253.39.446.656l1.686 2.299 1.325-1.911c.175-.263.329-.539.462-.825.108-.229.167-.477.172-.73z" fill="#F6643C"/><g clip-path="url(#clip1_380_5931)"><path d="M1.742 14.302l8.978-5.2a1.791 1.791 0 011.16-.23c.215.029.424.096.617.199l1.34.767 7.893 4.545a1.826 1.826 0 01.68.867l-.024-13.953a.894.894 0 00-.898-.892L1.797.436a.902.902 0 00-.892.899l.023 13.833a1.831 1.831 0 01.814-.866z" fill="#28286E"/><path d="M.934 18.391a1.831 1.831 0 01.808-.854l8.977-5.199a1.792 1.792 0 011.16-.23c.216.03.425.097.617.2l1.34.766 7.893 4.545a1.824 1.824 0 01.686.886l-.005-2.286v-.97a1.822 1.822 0 00-.68-.867l-7.894-4.544-1.34-.767a1.845 1.845 0 00-.873-.218c-.318.001-.63.087-.904.25l-8.977 5.199a1.832 1.832 0 00-.814.866v1.039l.006 2.184z" fill="#28286E"/><path opacity=".4" d="M.934 18.391a1.831 1.831 0 01.808-.854l8.977-5.199a1.792 1.792 0 011.16-.23c.216.03.425.097.617.2l1.34.766 7.893 4.545a1.824 1.824 0 01.686.886l-.005-2.286v-.97a1.822 1.822 0 00-.68-.867l-7.894-4.544-1.34-.767a1.845 1.845 0 00-.873-.218c-.318.001-.63.087-.904.25l-8.977 5.199a1.832 1.832 0 00-.814.866v1.039l.006 2.184z" fill="#F6643C"/><path d="M1.872 20.827l8.86-5.132a1.768 1.768 0 011.144-.227c.213.03.418.096.608.197l1.323.757 7.792 4.485a1.794 1.794 0 01.776 1.3c.03-.13.047-.262.048-.395l-.007-3.307a1.788 1.788 0 00-.686-.886l-7.893-4.545-1.34-.767a1.843 1.843 0 00-.873-.218c-.318.002-.63.088-.904.25l-8.978 5.199a1.833 1.833 0 00-.807.853l.007 3.458c0 .06.006.12.012.177a1.801 1.801 0 01.918-1.199z" fill="#28286E"/><path opacity=".7" d="M1.872 20.827l8.86-5.132a1.768 1.768 0 011.144-.227c.213.03.418.096.608.197l1.323.757 7.792 4.485a1.794 1.794 0 01.776 1.3c.03-.13.047-.262.048-.395l-.007-3.307a1.788 1.788 0 00-.686-.886l-7.893-4.545-1.34-.767a1.843 1.843 0 00-.873-.218c-.318.002-.63.088-.904.25l-8.978 5.199a1.833 1.833 0 00-.807.853l.007 3.458c0 .06.006.12.012.177a1.801 1.801 0 01.918-1.199z" fill="#F6643C"/><path d="M1.73 23.326l7.79 4.485 1.322.758a1.82 1.82 0 00.86.215 1.77 1.77 0 00.892-.246l8.862-5.132a1.801 1.801 0 00.918-1.199 1.793 1.793 0 00-.776-1.3l-7.79-4.485-1.323-.757a1.814 1.814 0 00-.86-.216 1.77 1.77 0 00-.891.246L1.87 20.827a1.806 1.806 0 00-.917 1.199 1.795 1.795 0 00.776 1.3z" fill="#F6643C"/></g></g><defs><clipPath id="clip0_380_5931"><path fill="#fff" transform="translate(.5)" d="M0 0h148.784v30H0z"/></clipPath><clipPath id="clip1_380_5931"><path fill="#fff" transform="translate(.905 .405)" d="M0 0h21.486v28.378H0z"/></clipPath></defs></svg>
